X: 13423
T: Floating Crowbar, The
R: reel
M: 4/4
K: Dmixolydian
c3B|:A~D3 A~D3|A~D3 ADGF|E~G3 AGBG|EGGF GBdB|
A~D3 A~D3|A~D3 ~G2FG|~A3B cded|cAGE ~D2 BG:|
|:~A2d^c dA (3Bcd|eaag edgd|eAAB AGEG|~A2GF EFGE|
~A2d^c dA (3Bcd|~a3g efge|af (3gfe fded|cAGE ~D2 BG:|

